X:1
T: Miss Charlotte Ross
C:
R:Reel
Q: 232
K:D
M:4/4
L:1/8
|:d|BA GF EF GB|Ad Fd Fd Fd|BA GF EF GB|Ad fe d3d|
BA GF EF GB|Ad Fd Fd Fd|BA GF EF GB|Ad fe d3A|
dd df cd ef|dd df dA df|dd df cd ef|df ef d3A|
df df cd ef|df eg fd ec|dB AF EF GB|Ad fe d3:|
